X:0886
T:A bonny young lad is my Jockey.
M:3/4
L:1/8
Q:1/4=120
I: ||
Z:Jack Campin * www.campin.me.uk * 2009
K:G
GA| B2     B2  AG    | d2     d2 cB|ed`cB``AG    |A4
c2|(B/c/d) B2  A2    |(G/A/B) G2 g2|fe`dc``BA    |G4
Bd| e2     e2 (e/f/g)| B2     B2 c2|d2 d2 (d/e/f)|A4
A2| d<B    B3      d | cA     A3  c|dB G2 (e/f/g)|f4
ed| g2     Bc  dB    | G3      A Bc|BA G2       |]
<end>
<start>
